svgs/1F442-1F3FE.svg

<svg xmlns="http://www.w3.org/2000/svg" xmlns:xlink="http://www.w3.org/1999/xlink" preserveAspectRatio="none" viewBox="0 0 72 72"><defs><path id="a" fill="#AD6F43" d="M59.05 27.35q.8-10.6-6.35-17.65Q46 3.1 35.3 2.35 25.15 1.6 18.9 8.4q-6.2 6.65-6.05 17.8.05 3.6 1.4 6.35.9 1.95 2.95 4.3 2.6 2.95 3.3 4.05 1.7 2.55 2.35 5.6.15.85-.65 5-1 5.3-1.2 7.8-1.05 10.35 4.85 10.45 16.25.25 20.65-8 1.25-2.3 2.25-7.25 1.05-4.85 2.05-6.7 4.9-8.6 5.25-9.4 2.6-5.5 3-11.05z"/><path id="b" fill="#7A4C32" d="M96.9 47.35q1-14.15-8.5-23.5Q79.45 15 65.2 14q-8.3-.6-16 4.25-7.3 4.6-12.1 12.7-.45.8.3 1.3.75.55 1.35-.15 5.2-6 12-9.2 7-3.3 13.85-2.8 13.05.95 20.05 7.75 7.55 7.3 6.6 20.25-.5 6.7-3.95 13.65-2 4.05-6.7 11.65-1.35 2.35-2.1 11.85-.85 10.5-2.8 15.85-.3.85.55 1.25.8.4 1.25-.4 3.05-5.15 5.05-15 2-9.95 3.35-12.35 6.45-11.35 7-12.5 3.45-7.3 4-14.75z"/><path id="c" fill="#7A4C32" d="M27.95 30.45Q23.9 28.9 22.35 33q-1.3 3.3 1.65 5.3.8.5 2.4 1.35 1.25.7 1.45 1.35.6 1.7-.05 7.45-.05.45.3.6.4.15.65-.15 2.2-2.6 3.35-5.2 1.8-3.8 1-6.9-1.25-4.8-5.15-6.35z"/><path id="d" fill="#7A4C32" d="M52.75 39.6q-.3.9.5 1.25 7.5 3.2 12 8Q71.1 55.1 71.1 63.5q0 .95.9 1 .9.05 1.1-.85 1.55-8.4-2-14.3-4.55-7.55-17.2-10.4-.85-.2-1.15.65z"/></defs><use xlink:href="#a"/><use transform="scale(.56248)" xlink:href="#b"/><use xlink:href="#c"/><use transform="scale(.56248)" xlink:href="#d"/></svg>

<svg xmlns="http://www.w3.org/2000/svg" version="1.1" xmlns:xlink="http://www.w3.org/1999/xlink" preserveAspectRatio="none" x="0px" y="0px" width="72px" height="72px" viewBox="0 0 72 72">
<defs>
<g id="Layer0_0_MEMBER_0_FILL">
<path fill="#AD6F43" stroke="none" d="
M 59.05 27.35
Q 59.85 16.75 52.7 9.7 46 3.1 35.3 2.35 25.15 1.6 18.9 8.4 12.7 15.05 12.85 26.2 12.9 29.8 14.25 32.55 15.15 34.5 17.2 36.85 19.8 39.8 20.5 40.9 22.2 43.45 22.85 46.5 23 47.35 22.2 51.5 21.2 56.8 21 59.3 19.95 69.65 25.85 69.75 42.1 70 46.5 61.75 47.75 59.45 48.75 54.5 49.8 49.65 50.8 47.8 55.7 39.2 56.05 38.4 58.65 32.9 59.05 27.35 Z"/>
</g>

<g id="Layer0_0_MEMBER_1_FILL">
<path fill="#7A4C32" stroke="none" d="
M 96.9 47.35
Q 97.9 33.2 88.4 23.85 79.45 15 65.2 14 56.9 13.4 49.2 18.25 41.9 22.85 37.1 30.95 36.65 31.75 37.4 32.25 38.15 32.8 38.75 32.1 43.95 26.1 50.75 22.9 57.75 19.6 64.6 20.1 77.65 21.05 84.65 27.85 92.2 35.15 91.25 48.1 90.75 54.8 87.3 61.75 85.3 65.8 80.6 73.4 79.25 75.75 78.5 85.25 77.65 95.75 75.7 101.1 75.4 101.95 76.25 102.35 77.05 102.75 77.5 101.95 80.55 96.8 82.55 86.95 84.55 77 85.9 74.6 92.35 63.25 92.9 62.1 96.35 54.8 96.9 47.35 Z"/>
</g>

<g id="Layer0_0_MEMBER_2_FILL">
<path fill="#7A4C32" stroke="none" d="
M 27.95 30.45
Q 23.9 28.9 22.35 33 21.05 36.3 24 38.3 24.8 38.8 26.4 39.65 27.65 40.35 27.85 41 28.45 42.7 27.8 48.45 27.75 48.9 28.1 49.05 28.5 49.2 28.75 48.9 30.95 46.3 32.1 43.7 33.9 39.9 33.1 36.8 31.85 32 27.95 30.45 Z"/>
</g>

<g id="Layer0_0_MEMBER_3_FILL">
<path fill="#7A4C32" stroke="none" d="
M 52.75 39.6
Q 52.45 40.5 53.25 40.85 60.75 44.05 65.25 48.85 71.1 55.1 71.1 63.5 71.1 64.45 72 64.5 72.9 64.55 73.1 63.65 74.65 55.25 71.1 49.35 66.55 41.8 53.9 38.95 53.05 38.75 52.75 39.6 Z"/>
</g>
</defs>

<g id="Layer_1">
<g transform="matrix( 1, 0, 0, 1, 0,0) ">
<use xlink:href="#Layer0_0_MEMBER_0_FILL"/>
</g>

<g transform="matrix( 0.5624847412109375, 0, 0, 0.5624847412109375, 0,0) ">
<use xlink:href="#Layer0_0_MEMBER_1_FILL"/>
</g>

<g transform="matrix( 1, 0, 0, 1, 0,0) ">
<use xlink:href="#Layer0_0_MEMBER_2_FILL"/>
</g>

<g transform="matrix( 0.5624847412109375, 0, 0, 0.5624847412109375, 0,0) ">
<use xlink:href="#Layer0_0_MEMBER_3_FILL"/>
</g>
</g>
</svg>
